exports/world-population-in-extreme-poverty-absolute_v1_850x600.svg

<svg xmlns="http://www.w3.org/2000/svg" version="1.1" style="background-color:#fff;-webkit-font-smoothing:antialiased" width="850" height="600" font-family="'Helvetica Neue',Helvetica,Arial,sans-serif" font-size="18" text-rendering="optimizeLegibility"><g class="ChartTab"><g class="HeaderView"><g opacity=".8" transform="matrix(.31 0 0 .31 770 15)"><a xmlns:xlink="http://www.w3.org/1999/xlink" xlink:href="https://ourworldindata.org" target="_blank"><g><path fill="#1B2543" d="M0 0h211.2v130.1H0z"/><path fill="#E63912" d="M0 112.2h211.2v17.9H0z"/><g><path fill="none" d="M1.2 12.3h210.2v99.2H1.2z"/><path fill="#FFF" d="M37.8 32.2c0 12.7-7.7 19.4-17.1 19.4-9.7 0-16.6-7.5-16.6-18.7 0-11.7 7.3-19.3 17.1-19.3 10.1.1 16.6 7.7 16.6 18.6zm-28.6.6c0 7.9 4.3 14.9 11.8 14.9 7.5 0 11.8-6.9 11.8-15.3 0-7.3-3.8-14.9-11.8-14.9-7.9 0-11.8 7.3-11.8 15.3zM62.7 43.8c0 2.7.1 5.1.2 7.2h-4.3l-.3-4.3h-.1c-1.3 2.1-4 4.9-8.8 4.9-4.2 0-9.1-2.3-9.1-11.6V24.6h4.8v14.6c0 5 1.5 8.4 5.9 8.4 3.2 0 5.5-2.2 6.3-4.4.3-.7.4-1.6.4-2.5V24.6h4.8v19.2zM67.3 32.8c0-3.1-.1-5.8-.2-8.2h4.2l.2 5.2h.2c1.2-3.5 4.1-5.8 7.3-5.8.5 0 .9.1 1.4.2v4.5c-.5-.1-1-.2-1.6-.2-3.4 0-5.8 2.6-6.5 6.2-.1.7-.2 1.4-.2 2.2V51h-4.8V32.8zM95.4 51L86 14.2h5l4.4 18.6c1.1 4.6 2.1 9.2 2.7 12.7h.1c.6-3.7 1.8-8 3-12.8l4.9-18.5h5l4.5 18.7c1 4.4 2 8.7 2.6 12.6h.1c.8-4 1.8-8.1 3-12.7l4.9-18.5h4.9L120.6 51h-5L111 31.9c-1.1-4.7-1.9-8.3-2.4-12h-.1c-.7 3.7-1.5 7.3-2.8 12L100.4 51h-5zM154.9 37.6c0 9.8-6.8 14-13.2 14-7.2 0-12.7-5.2-12.7-13.6 0-8.8 5.8-14 13.1-14 7.7 0 12.8 5.5 12.8 13.6zm-21 .3c0 5.8 3.3 10.1 8 10.1 4.6 0 8-4.3 8-10.3 0-4.5-2.2-10.1-7.9-10.1s-8.1 5.2-8.1 10.3zM158.2 32.8c0-3.1-.1-5.8-.2-8.2h4.2l.2 5.2h.2c1.2-3.5 4.1-5.8 7.3-5.8.5 0 .9.1 1.4.2v4.5c-.5-.1-1-.2-1.6-.2-3.4 0-5.8 2.6-6.5 6.2-.1.7-.2 1.4-.2 2.2V51h-4.8V32.8zM173.5 12.3h4.8V51h-4.8V12.3zM206.5 12.3v31.9c0 2.3.1 5 .2 6.8h-4.3l-.2-4.6h-.2c-1.5 2.9-4.7 5.2-9 5.2-6.4 0-11.3-5.4-11.3-13.4-.1-8.8 5.4-14.2 11.9-14.2 4 0 6.8 1.9 8 4h.1V12.3h4.8zm-4.8 23.1c0-.6-.1-1.4-.2-2a7 7 0 00-6.9-5.6c-5 0-7.9 4.4-7.9 10.2 0 5.3 2.6 9.8 7.8 9.8 3.2 0 6.2-2.1 7.1-5.7.2-.7.2-1.3.2-2.1v-4.6zM42.8 64c.1 1.6-1.1 2.9-3.1 2.9-1.7 0-2.9-1.3-2.9-2.9 0-1.7 1.3-3 3-3 1.9 0 3 1.3 3 3zm-5.4 33.8V71.4h4.8v26.4h-4.8zM47.5 78.6c0-2.7-.1-5-.2-7.1h4.3l.3 4.4h.1c1.3-2.5 4.4-5 8.8-5 3.7 0 9.4 2.2 9.4 11.2v15.8h-4.8V82.6c0-4.3-1.6-7.8-6.1-7.8-3.2 0-5.6 2.2-6.5 4.9-.2.6-.3 1.4-.3 2.2v15.9h-4.8V78.6zM84 61.6c2.9-.4 6.3-.8 10.1-.8 6.8 0 11.7 1.6 14.9 4.6 3.3 3 5.2 7.3 5.2 13.2 0 6-1.9 10.9-5.3 14.3-3.4 3.4-9.1 5.3-16.3 5.3-3.4 0-6.2-.2-8.6-.4V61.6zm4.8 32.5c1.2.2 3 .3 4.8.3 10.2 0 15.7-5.7 15.7-15.6.1-8.7-4.9-14.2-14.9-14.2-2.5 0-4.3.2-5.6.5v29zM132.1 97.8l-.4-3.3h-.2a9.79 9.79 0 01-8.1 3.9c-5.4 0-8.1-3.8-8.1-7.6 0-6.4 5.7-9.9 15.9-9.8v-.5c0-2.2-.6-6.1-6-6.1-2.5 0-5 .8-6.9 2l-1.1-3.2c2.2-1.4 5.4-2.3 8.7-2.3 8.1 0 10.1 5.5 10.1 10.8v9.9c0 2.3.1 4.5.4 6.3h-4.3zm-.7-13.4c-5.3-.1-11.2.8-11.2 5.9 0 3.1 2.1 4.6 4.5 4.6 3.4 0 5.6-2.2 6.4-4.4.2-.5.3-1 .3-1.5v-4.6zM146.6 63.9v7.6h6.9v3.7h-6.9v14.2c0 3.3.9 5.1 3.6 5.1 1.3 0 2.2-.2 2.8-.3l.2 3.6c-.9.4-2.4.7-4.3.7-2.2 0-4-.7-5.2-2-1.4-1.4-1.9-3.8-1.9-6.9V75.1h-4.1v-3.7h4.1v-6.3l4.8-1.2zM171.4 97.8l-.4-3.3h-.2a9.79 9.79 0 01-8.1 3.9c-5.4 0-8.1-3.8-8.1-7.6 0-6.4 5.7-9.9 15.9-9.8v-.5c0-2.2-.6-6.1-6-6.1-2.5 0-5 .8-6.9 2l-1.1-3.2c2.2-1.4 5.4-2.3 8.7-2.3 8.1 0 10.1 5.5 10.1 10.8v9.9c0 2.3.1 4.5.4 6.3h-4.3zm-.7-13.4c-5.3-.1-11.2.8-11.2 5.9 0 3.1 2.1 4.6 4.5 4.6 3.4 0 5.6-2.2 6.4-4.4.2-.5.3-1 .3-1.5v-4.6z"/></g></g></a></g><a href="https://ourworldindata.org/grapher/world-population-in-extreme-poverty-absolute" target="_blank"><text font-size="27" x="15" y="36.6" fill="#555"><tspan x="15" y="36.6">World population living in extreme poverty, 1820-2015</tspan></text></a><text font-size="14.4" x="15" y="55.5" fill="#666"><tspan x="15" y="55.52">Extreme poverty is defined as living at a consumption (or income) level below 1.90 &quot;international $&quot; per day.</tspan><tspan x="15" y="71.36">International $ are adjusted for price differences between countries and for price changes over time (inflation).</tspan></text></g><g class="StackedArea"><defs><clipPath id="a"><path d="M75.08 0h820v896h-820z"/></clipPath></defs><g class="AxisBoxView"><g class="HorizontalAxis" fill="#666" text-anchor="middle" font-size="16.2"><text x="75.1" y="541.9">1820</text><text x="171.2" y="541.9">1850</text><text x="331.5" y="541.9">1900</text><text x="491.8" y="541.9">1950</text><text x="652" y="541.9">2000</text><text x="700.1" y="541.9">2015</text></g><g class="VerticalAxis" fill="#666" dominant-baseline="middle" text-anchor="end" font-size="16.2"><text x="70.08" y="520.7">0</text><text x="70.08" y="462.6">1 billion</text><text x="70.08" y="404.6">2 billion</text><text x="70.08" y="346.5">3 billion</text><text x="70.08" y="288.4">4 billion</text><text x="70.08" y="230.3">5 billion</text><text x="70.08" y="172.3">6 billion</text><text x="70.08" y="114.2">7 billion</text></g><g class="AxisGridLines"><path stroke="#ccc" d="M75.08 520.7h625.01"/><path stroke="#ddd" stroke-dasharray="3,2" d="M75.08 462.6h625.01M75.08 404.6h625.01M75.08 346.5h625.01M75.08 288.4h625.01M75.08 230.3h625.01M75.08 172.3h625.01M75.08 114.2h625.01"/></g><g class="AxisGridLines" stroke="#ddd" stroke-dasharray="3,2"><path d="M171.2 520.7V93.9M331.5 520.7V93.9M491.8 520.7V93.9M652 520.7V93.9"/></g></g><g clip-path="url(#a)"><g class="HeightedLegend clickable"><g class="legendMark"><path fill="#34983f" d="M705.09 285.55h10v2.5h-10z"/><text font-size="14.4" x="720.1" y="275.6" fill="#333"><tspan x="720.09" y="275.62">Number of people</tspan><tspan x="720.09" y="291.46">not in extreme</tspan><tspan x="720.09" y="307.3">poverty</tspan></text></g><g class="legendMark"><path fill="#ca2628" d="M705.09 498.95h10v2.5h-10z"/><text font-size="14.4" x="720.1" y="489" fill="#333"><tspan x="720.09" y="489.02">Number of people</tspan><tspan x="720.09" y="504.86">living in extreme</tspan><tspan x="720.09" y="520.7">poverty</tspan></text></g></g><g class="Areas"><path d="M75.1 461.4l96.1-8.5 64.1-5 64.1-4.7 64.1-6.2 60.9-6.4 67.4-15.1 32-7.8 32.1-15.8 35.2 13.4 9.6 2.4 9.6 5 9.7-5.8 9.6 1.3 9.6 11.9 9.6-1.6 9.6 6.3 9.6 16.7 9.7 5.9 6.4 7.8 3.2 8 3.2 5 9.6 11.5-.01 41H75.08" fill="#ca2628" fill-opacity=".7" class="World_1-area"/><path d="M75.1 457.8l96.1-10.4 64.1-8 64.1-9.1 64.1-11.2 60.9-17.2 67.4-27.5 32-29.4 32.1-38.7 35.2-48 9.6-14.4 9.6-15.5 9.7-16 9.6-15.2 9.6-14.2 9.6-13.6 9.6-13.5 9.6-13.8 9.7-14.2 6.4-9.6 3.2-4.9 3.2-4.9 9.6-14.6v385.8l-9.6-11.5-3.2-5-3.2-8-6.4-7.8-9.7-5.9-9.6-16.7-9.6-6.3-9.6 1.6-9.6-11.9-9.6-1.3-9.7 5.8-9.6-5-9.6-2.4-35.2-13.4-32.1 15.8-32 7.8-67.4 15.1-60.9 6.4-64.1 6.2-64.1 4.7-64.1 5-96.1 8.5" fill="#34983f" fill-opacity=".7" class="World_0-area"/><path stroke-linecap="round" d="M75.1 461.4l96.1-8.5 64.1-5 64.1-4.7 64.1-6.2 60.9-6.4 67.4-15.1 32-7.8 32.1-15.8 35.2 13.4 9.6 2.4 9.6 5 9.7-5.8 9.6 1.3 9.6 11.9 9.6-1.6 9.6 6.3 9.6 16.7 9.7 5.9 6.4 7.8 3.2 8 3.2 5 9.6 11.5" stroke="#A92021" stroke-opacity=".7" stroke-width=".5" fill="none" class="World_1-border"/><path stroke-linecap="round" d="M75.1 457.8l96.1-10.4 64.1-8 64.1-9.1 64.1-11.2 60.9-17.2 67.4-27.5 32-29.4 32.1-38.7 35.2-48 9.6-14.4 9.6-15.5 9.7-16 9.6-15.2 9.6-14.2 9.6-13.6 9.6-13.5 9.6-13.8 9.7-14.2 6.4-9.6 3.2-4.9 3.2-4.9 9.6-14.6" stroke="#2C7F35" stroke-opacity=".7" stroke-width=".5" fill="none" class="World_0-border"/></g></g></g><g class="SourcesFooter" fill="#777"><g class="clickable" fill="#777"><text font-size="12.6" x="15" y="567"><tspan x="15" y="566.98">Source: World Poverty in absolute numbers - OWID based on World Bank (2016) and Bourguignon and Morrisson (2002)</tspan></text></g><text font-size="12.6" x="15" y="582.5"><tspan x="15" y="582.48"><a target="_blank" href="https://ourworldindata.org/extreme-poverty/" fill="#777">OurWorldInData.org/extreme-poverty/</a> • <a href="http://creativecommons.org/licenses/by-sa/4.0/deed.en_US" target="_blank" fill="#777">CC BY-SA</a></tspan></text></g></g></svg>

<svg xmlns="http://www.w3.org/2000/svg" version="1.1" style="font-family: 'Helvetica Neue', Helvetica, Arial, sans-serif; font-size: 18px; background-color: white; text-rendering: optimizeLegibility; -webkit-font-smoothing: antialiased;" width="850" height="600"><g class="ChartTab"><g class="HeaderView"><g opacity="0.8" transform="translate(770, 15) scale(0.31)"><a xmlns:xlink="http://www.w3.org/1999/xlink" xlink:href="https://ourworldindata.org" target="_blank"><g><rect x="0" y="0" fill="#1B2543" width="211.2" height="130.1"/><rect x="0" y="112.2" fill="#E63912" width="211.2" height="17.9"/><g><rect x="1.2" y="12.3" fill="none" width="210.2" height="99.2"/><path fill="#FFFFFF" d="M37.8,32.2c0,12.7-7.7,19.4-17.1,19.4c-9.7,0-16.6-7.5-16.6-18.7c0-11.7,7.3-19.3,17.1-19.3 C31.3,13.7,37.8,21.3,37.8,32.2z M9.2,32.8c0,7.9,4.3,14.9,11.8,14.9c7.5,0,11.8-6.9,11.8-15.3c0-7.3-3.8-14.9-11.8-14.9 C13.1,17.5,9.2,24.8,9.2,32.8z"/><path fill="#FFFFFF" d="M62.7,43.8c0,2.7,0.1,5.1,0.2,7.2h-4.3l-0.3-4.3h-0.1c-1.3,2.1-4,4.9-8.8,4.9c-4.2,0-9.1-2.3-9.1-11.6 V24.6h4.8v14.6c0,5,1.5,8.4,5.9,8.4c3.2,0,5.5-2.2,6.3-4.4c0.3-0.7,0.4-1.6,0.4-2.5V24.6h4.8V43.8z"/><path fill="#FFFFFF" d="M67.3,32.8c0-3.1-0.1-5.8-0.2-8.2h4.2l0.2,5.2h0.2c1.2-3.5,4.1-5.8,7.3-5.8c0.5,0,0.9,0.1,1.4,0.2v4.5 c-0.5-0.1-1-0.2-1.6-0.2c-3.4,0-5.8,2.6-6.5,6.2c-0.1,0.7-0.2,1.4-0.2,2.2V51h-4.8V32.8z"/><path fill="#FFFFFF" d="M95.4,51l-9.4-36.8h5l4.4,18.6c1.1,4.6,2.1,9.2,2.7,12.7h0.1c0.6-3.7,1.8-8,3-12.8l4.9-18.5h5l4.5,18.7 c1,4.4,2,8.7,2.6,12.6h0.1c0.8-4,1.8-8.1,3-12.7l4.9-18.5h4.9L120.6,51h-5L111,31.9c-1.1-4.7-1.9-8.3-2.4-12h-0.1 c-0.7,3.7-1.5,7.3-2.8,12L100.4,51H95.4z"/><path fill="#FFFFFF" d="M154.9,37.6c0,9.8-6.8,14-13.2,14c-7.2,0-12.7-5.2-12.7-13.6c0-8.8,5.8-14,13.1-14 C149.8,24,154.9,29.5,154.9,37.6z M133.9,37.9c0,5.8,3.3,10.1,8,10.1c4.6,0,8-4.3,8-10.3c0-4.5-2.2-10.1-7.9-10.1 C136.3,27.6,133.9,32.8,133.9,37.9z"/><path fill="#FFFFFF" d="M158.2,32.8c0-3.1-0.1-5.8-0.2-8.2h4.2l0.2,5.2h0.2c1.2-3.5,4.1-5.8,7.3-5.8c0.5,0,0.9,0.1,1.4,0.2v4.5 c-0.5-0.1-1-0.2-1.6-0.2c-3.4,0-5.8,2.6-6.5,6.2c-0.1,0.7-0.2,1.4-0.2,2.2V51h-4.8V32.8z"/><path fill="#FFFFFF" d="M173.5,12.3h4.8V51h-4.8V12.3z"/><path fill="#FFFFFF" d="M206.5,12.3v31.9c0,2.3,0.1,5,0.2,6.8h-4.3l-0.2-4.6H202c-1.5,2.9-4.7,5.2-9,5.2 c-6.4,0-11.3-5.4-11.3-13.4c-0.1-8.8,5.4-14.2,11.9-14.2c4,0,6.8,1.9,8,4h0.1V12.3H206.5z M201.7,35.4c0-0.6-0.1-1.4-0.2-2 c-0.7-3.1-3.3-5.6-6.9-5.6c-5,0-7.9,4.4-7.9,10.2c0,5.3,2.6,9.8,7.8,9.8c3.2,0,6.2-2.1,7.1-5.7c0.2-0.7,0.2-1.3,0.2-2.1V35.4z"/><path fill="#FFFFFF" d="M42.8,64c0.1,1.6-1.1,2.9-3.1,2.9c-1.7,0-2.9-1.3-2.9-2.9c0-1.7,1.3-3,3-3C41.7,61,42.8,62.3,42.8,64z M37.4,97.8V71.4h4.8v26.4H37.4z"/><path fill="#FFFFFF" d="M47.5,78.6c0-2.7-0.1-5-0.2-7.1h4.3l0.3,4.4h0.1c1.3-2.5,4.4-5,8.8-5c3.7,0,9.4,2.2,9.4,11.2v15.8h-4.8 V82.6c0-4.3-1.6-7.8-6.1-7.8c-3.2,0-5.6,2.2-6.5,4.9c-0.2,0.6-0.3,1.4-0.3,2.2v15.9h-4.8V78.6z"/><path fill="#FFFFFF" d="M84,61.6c2.9-0.4,6.3-0.8,10.1-0.8c6.8,0,11.7,1.6,14.9,4.6c3.3,3,5.2,7.3,5.2,13.2c0,6-1.9,10.9-5.3,14.3 c-3.4,3.4-9.1,5.3-16.3,5.3c-3.4,0-6.2-0.2-8.6-0.4V61.6z M88.8,94.1c1.2,0.2,3,0.3,4.8,0.3c10.2,0,15.7-5.7,15.7-15.6 c0.1-8.7-4.9-14.2-14.9-14.2c-2.5,0-4.3,0.2-5.6,0.5V94.1z"/><path fill="#FFFFFF" d="M132.1,97.8l-0.4-3.3h-0.2c-1.5,2.1-4.3,3.9-8.1,3.9c-5.4,0-8.1-3.8-8.1-7.6c0-6.4,5.7-9.9,15.9-9.8v-0.5 c0-2.2-0.6-6.1-6-6.1c-2.5,0-5,0.8-6.9,2l-1.1-3.2c2.2-1.4,5.4-2.3,8.7-2.3c8.1,0,10.1,5.5,10.1,10.8v9.9c0,2.3,0.1,4.5,0.4,6.3 H132.1z M131.4,84.4c-5.3-0.1-11.2,0.8-11.2,5.9c0,3.1,2.1,4.6,4.5,4.6c3.4,0,5.6-2.2,6.4-4.4c0.2-0.5,0.3-1,0.3-1.5V84.4z"/><path fill="#FFFFFF" d="M146.6,63.9v7.6h6.9v3.7h-6.9v14.2c0,3.3,0.9,5.1,3.6,5.1c1.3,0,2.2-0.2,2.8-0.3l0.2,3.6 c-0.9,0.4-2.4,0.7-4.3,0.7c-2.2,0-4-0.7-5.2-2c-1.4-1.4-1.9-3.8-1.9-6.9V75.1h-4.1v-3.7h4.1v-6.3L146.6,63.9z"/><path fill="#FFFFFF" d="M171.4,97.8l-0.4-3.3h-0.2c-1.5,2.1-4.3,3.9-8.1,3.9c-5.4,0-8.1-3.8-8.1-7.6c0-6.4,5.7-9.9,15.9-9.8v-0.5 c0-2.2-0.6-6.1-6-6.1c-2.5,0-5,0.8-6.9,2l-1.1-3.2c2.2-1.4,5.4-2.3,8.7-2.3c8.1,0,10.1,5.5,10.1,10.8v9.9c0,2.3,0.1,4.5,0.4,6.3 H171.4z M170.7,84.4c-5.3-0.1-11.2,0.8-11.2,5.9c0,3.1,2.1,4.6,4.5,4.6c3.4,0,5.6-2.2,6.4-4.4c0.2-0.5,0.3-1,0.3-1.5V84.4z"/></g></g></a></g><a href="https://ourworldindata.org/grapher/world-population-in-extreme-poverty-absolute" target="_blank"><text font-size="27.00" x="15.0" y="36.6" fill="#555"><tspan x="15" y="36.6">World population living in extreme poverty, 1820-2015</tspan></text></a><text font-size="14.40" x="15.0" y="55.5" fill="#666"><tspan x="15" y="55.519999999999996">Extreme poverty is defined as living at a consumption (or income) level below 1.90 &quot;international $&quot; per day.</tspan><tspan x="15" y="71.36">International $ are adjusted for price differences between countries and for price changes over time (inflation).</tspan></text></g><g class="StackedArea"><defs><clipPath id="boundsClip-110"><rect x="75.08" y="0" width="820" height="896"></rect></clipPath></defs><g class="AxisBoxView"><g class="HorizontalAxis"><text x="75.1" y="541.9" fill="#666" text-anchor="middle" font-size="16.2">1820</text><text x="171.2" y="541.9" fill="#666" text-anchor="middle" font-size="16.2">1850</text><text x="331.5" y="541.9" fill="#666" text-anchor="middle" font-size="16.2">1900</text><text x="491.8" y="541.9" fill="#666" text-anchor="middle" font-size="16.2">1950</text><text x="652" y="541.9" fill="#666" text-anchor="middle" font-size="16.2">2000</text><text x="700.1" y="541.9" fill="#666" text-anchor="middle" font-size="16.2">2015</text></g><g class="VerticalAxis"><text x="70.08" y="520.7" fill="#666" dominant-baseline="middle" text-anchor="end" font-size="16.2">0</text><text x="70.08" y="462.6" fill="#666" dominant-baseline="middle" text-anchor="end" font-size="16.2">1 billion</text><text x="70.08" y="404.6" fill="#666" dominant-baseline="middle" text-anchor="end" font-size="16.2">2 billion</text><text x="70.08" y="346.5" fill="#666" dominant-baseline="middle" text-anchor="end" font-size="16.2">3 billion</text><text x="70.08" y="288.4" fill="#666" dominant-baseline="middle" text-anchor="end" font-size="16.2">4 billion</text><text x="70.08" y="230.3" fill="#666" dominant-baseline="middle" text-anchor="end" font-size="16.2">5 billion</text><text x="70.08" y="172.3" fill="#666" dominant-baseline="middle" text-anchor="end" font-size="16.2">6 billion</text><text x="70.08" y="114.2" fill="#666" dominant-baseline="middle" text-anchor="end" font-size="16.2">7 billion</text></g><g class="AxisGridLines"><line x1="75.08" y1="520.7" x2="700.09" y2="520.7" stroke="#ccc"></line><line x1="75.08" y1="462.6" x2="700.09" y2="462.6" stroke="#ddd" stroke-dasharray="3,2"></line><line x1="75.08" y1="404.6" x2="700.09" y2="404.6" stroke="#ddd" stroke-dasharray="3,2"></line><line x1="75.08" y1="346.5" x2="700.09" y2="346.5" stroke="#ddd" stroke-dasharray="3,2"></line><line x1="75.08" y1="288.4" x2="700.09" y2="288.4" stroke="#ddd" stroke-dasharray="3,2"></line><line x1="75.08" y1="230.3" x2="700.09" y2="230.3" stroke="#ddd" stroke-dasharray="3,2"></line><line x1="75.08" y1="172.3" x2="700.09" y2="172.3" stroke="#ddd" stroke-dasharray="3,2"></line><line x1="75.08" y1="114.2" x2="700.09" y2="114.2" stroke="#ddd" stroke-dasharray="3,2"></line></g><g class="AxisGridLines"><line x1="171.2" y1="520.70" x2="171.2" y2="93.90" stroke="#ddd" stroke-dasharray="3,2"></line><line x1="331.5" y1="520.70" x2="331.5" y2="93.90" stroke="#ddd" stroke-dasharray="3,2"></line><line x1="491.8" y1="520.70" x2="491.8" y2="93.90" stroke="#ddd" stroke-dasharray="3,2"></line><line x1="652" y1="520.70" x2="652" y2="93.90" stroke="#ddd" stroke-dasharray="3,2"></line></g></g><g clip-path="url(#boundsClip-110)"><g class="HeightedLegend clickable"><g class="legendMark"><rect x="705.088" y="264.1" width="129.91200000000003" height="45.400000000000006" fill="#fff" opacity="0"></rect><rect x="705.088" y="285.55" width="10" height="2.5" fill="#34983f"></rect><text font-size="14.40" x="720.1" y="275.6" fill="#333"><tspan x="720.088" y="275.62">Number of people</tspan><tspan x="720.088" y="291.46">not in extreme</tspan><tspan x="720.088" y="307.3">poverty</tspan></text></g><g class="legendMark"><rect x="705.088" y="477.5" width="129.91200000000003" height="45.400000000000006" fill="#fff" opacity="0"></rect><rect x="705.088" y="498.95" width="10" height="2.5" fill="#ca2628"></rect><text font-size="14.40" x="720.1" y="489.0" fill="#333"><tspan x="720.088" y="489.02">Number of people</tspan><tspan x="720.088" y="504.85999999999996">living in extreme</tspan><tspan x="720.088" y="520.6999999999999">poverty</tspan></text></g></g><g class="Areas"><rect x="75.08" y="93.9" width="625.0079999999999" height="426.80000000000007" opacity="0" fill="rgba(255,255,255,0)"></rect><path stroke-linecap="round" d="M75.1 461.4L171.2 452.9L235.3 447.9L299.4 443.2L363.5 437L424.4 430.6L491.8 415.5L523.8 407.7L555.9 391.9L591.1 405.3L600.7 407.7L610.3 412.7L620 406.9L629.6 408.2L639.2 420.1L648.8 418.5L658.4 424.8L668 441.5L677.7 447.4L684.1 455.2L687.3 463.2L690.5 468.2L700.1 479.7L700.088 520.7L75.08 520.7" fill="#ca2628" fill-opacity="0.7" class="World_1-area"></path><path stroke-linecap="round" d="M75.1 457.8L171.2 447.4L235.3 439.4L299.4 430.3L363.5 419.1L424.4 401.9L491.8 374.4L523.8 345L555.9 306.3L591.1 258.3L600.7 243.9L610.3 228.4L620 212.4L629.6 197.2L639.2 183L648.8 169.4L658.4 155.9L668 142.1L677.7 127.9L684.1 118.3L687.3 113.4L690.5 108.5L700.1 93.9L700.1 479.7L690.5 468.2L687.3 463.2L684.1 455.2L677.7 447.4L668 441.5L658.4 424.8L648.8 418.5L639.2 420.1L629.6 408.2L620 406.9L610.3 412.7L600.7 407.7L591.1 405.3L555.9 391.9L523.8 407.7L491.8 415.5L424.4 430.6L363.5 437L299.4 443.2L235.3 447.9L171.2 452.9L75.1 461.4" fill="#34983f" fill-opacity="0.7" class="World_0-area"></path><path stroke-linecap="round" d="M75.1 461.4L171.2 452.9L235.3 447.9L299.4 443.2L363.5 437L424.4 430.6L491.8 415.5L523.8 407.7L555.9 391.9L591.1 405.3L600.7 407.7L610.3 412.7L620 406.9L629.6 408.2L639.2 420.1L648.8 418.5L658.4 424.8L668 441.5L677.7 447.4L684.1 455.2L687.3 463.2L690.5 468.2L700.1 479.7" stroke="rgb(169, 32, 33)" stroke-opacity="0.7" stroke-width="0.5" fill="none" class="World_1-border"></path><path stroke-linecap="round" d="M75.1 457.8L171.2 447.4L235.3 439.4L299.4 430.3L363.5 419.1L424.4 401.9L491.8 374.4L523.8 345L555.9 306.3L591.1 258.3L600.7 243.9L610.3 228.4L620 212.4L629.6 197.2L639.2 183L648.8 169.4L658.4 155.9L668 142.1L677.7 127.9L684.1 118.3L687.3 113.4L690.5 108.5L700.1 93.9" stroke="rgb(44, 127, 53)" stroke-opacity="0.7" stroke-width="0.5" fill="none" class="World_0-border"></path></g></g></g><g style="fill: #777;" class="SourcesFooter"><g style="fill: #777;" class="clickable"><text font-size="12.60" x="15.0" y="567.0"><tspan x="15" y="566.98">Source: World Poverty in absolute numbers - OWID based on World Bank (2016) and Bourguignon and Morrisson (2002)</tspan></text></g><text font-size="12.60" x="15.0" y="582.5"><tspan x="15" y="582.48"><a target='_blank' style='fill: #777;' href='https://ourworldindata.org/extreme-poverty/'>OurWorldInData.org/extreme-poverty/</a> • <a style="fill: #777;" href="http://creativecommons.org/licenses/by-sa/4.0/deed.en_US" target="_blank">CC BY-SA</a></tspan></text></g></g></svg>
